X: 1457
T: And That's Okay
R: reel
M: 4/4
K: Dmajor
|:"D"D3E3DE|F2AE2D dc|"G"B2AF2E DC|G,4zA, B,C|"D"D3E3DE|
F2DA2D EF|1 "G"GG FA2A FG-|GG FA2G FE:|2 "G"GG FG2FD D-|"A"D4||
|:A de|"D"fe dA2f ed|"G"AG FG2B AG|"Em"AG FE2F2G-|"A" GA2B2c de|"D""(Bm)"fe d A2f ed|
"G"AG FG2D EF|1 "Em"GG FG2F DD-|"G"D4z:|2 "Em"GG F"A"A2A FG-|"G"GG FA2G FE||

